!!!OTL: Reigen (3-99), S. 270
!!!id: P1072
**kern
*clefG2
*k[f#c#]
*G:
{4g
=1
4.g
8f#
4g
=2
4a
4a
4a
=3
4.d
8d
4d
=4
2a}
4r
=5
{4.a
8a
4a
=6
4a
4b
4cc#
=7
4.cc#
8b
4cc#
=8
2a}
=9
{4b
=10
4.g
8f#
4g
=11
4a
4a
4b
=12
2b
4a
=13
2g}
==
*-
!!!minrhy: 8
!!!meters: 3/4 ]  ZZ[3
!!!cut: Reigen (3-99), S. 270
!!!reg: Lothringen
!!!trd: PINCK, Louis: Verklingende Weisen, Bd3, Metz 1933
!!!rhy1: X_  X_.XX_  X_X_X_  X_.XX_  X__0_
!!!rhy2: X_.XX_  X_X_X_  X_.XX_  X__
!!!key: P1072  08  G 3/4 ]  ZZ[3
!!!mod: SECHSTONSKALA DUR ?]  AMBITUS[7
!!!kad: 221
!!!akz: 12-52_224#2_1231_
!!!fot: 'a__b__c__
!!!for: 'a__av_b__
!!!fok: 'Va_^__Sd_
!! PHRAS[VORWIEGEND AUFTAKTIG]
!!!fkt: Tanzlied?
!!!bem: 1. Melodie von der 1. Strophe
!! LOTH VKL
!! PR[40] 2K[9] 2G[19] 3K[0] 3G[0] 4A[2] 4Ü[0] 5A[2] 6K[0] 6G[0]
!! 7K[0] 7G[0] 8A[0] MEHR[0] SI[32] ABS[47] SR[28] SP[4]
!! ST[16] 2k[9] 2g[11] 3k[0] 3g[4] 4d[2] 4ü[0] 5d[2] 6k[0] 6g[0]
!! 7k[0] 7g[0] 8d[0] mehr[0] si[28] dm[+4] sr[19] sp[9]
!! 1F[29] 2F[48] 3F[6] 4F[0] LF[0] 2P[17] 3P[0] 4P[0] TRI[0] DF[4] AB[48]
!! TF[0] U3K[0] U3[0] U4[0] U4Ü[0] U5[6] U6K[0] U6[0] U7K[0] U7[8]
!! N1[25] N2K[0] N2[31] N3K[0] N3[21] N4[2] N4Ü[0] N5[6] N6K[0] N6[0]
!!!n7k: 0] N7[0] O1[0] O2K[0] O2[0] O3K[0] O3[0] HÖ[0
